icons/guidance-icons/manoeuvers-sdk/right-roundabout-exit8.svg

<svg width="80" height="80" viewBox="0 0 80 80" fill="none" xmlns="http://www.w3.org/2000/svg">
<path d="M65.4801 38.19C65.8112 36.5437 65.9819 34.8692 65.9901 33.19L60.4801 32.61C60.454 30.7078 60.1577 28.8189 59.6001 27L64.6501 24.75C64.1324 23.1657 63.4626 21.6353 62.6501 20.18L57.5601 22.44C56.5847 20.8024 55.3865 19.3081 54.0001 18L57.2801 13.5C56.6407 12.9428 55.9732 12.4188 55.2801 11.93C54.6049 11.4365 53.9039 10.9792 53.1801 10.56L49.9201 15.05C48.249 14.1379 46.4582 13.4647 44.6001 13.05L45.1801 7.53002C43.5338 7.19895 41.8593 7.02815 40.1801 7.02002L39.6001 12.53C37.7017 12.5538 35.8162 12.8467 34.0001 13.4L31.7601 8.35002C30.1758 8.86768 28.6453 9.53747 27.1901 10.35L29.4501 15.44C25.1374 18.0031 21.9156 22.06 20.3958 26.8411C18.8759 31.6222 19.1639 36.7948 21.2049 41.3776C23.246 45.9605 26.8982 49.6347 31.4687 51.7033C36.0392 53.772 41.21 54.091 46.0001 52.6L48.2501 57.6C49.8344 57.0824 51.3648 56.4126 52.8201 55.6L50.5601 50.51C52.1946 49.55 53.6887 48.3688 55.0001 47L59.5001 50.28C60.0573 49.6407 60.5813 48.9731 61.0701 48.28C61.5636 47.6048 62.021 46.9038 62.4401 46.18L57.9501 42.92C58.8622 41.2489 59.5354 39.4581 59.9501 37.6L65.4801 38.19ZM40.0001 48.5C36.9345 48.5 33.9377 47.591 31.3887 45.8878C28.8398 44.1846 26.8531 41.7639 25.68 38.9316C24.5068 36.0994 24.1998 32.9828 24.7979 29.9761C25.396 26.9694 26.8722 24.2076 29.0399 22.0399C31.2076 19.8721 33.9695 18.3959 36.9762 17.7978C39.9829 17.1998 43.0994 17.5067 45.9317 18.6799C48.7639 19.853 51.1847 21.8397 52.8879 24.3887C54.591 26.9376 55.5001 29.9344 55.5001 33C55.4974 37.1101 53.8636 41.051 50.9573 43.9572C48.0511 46.8635 44.1101 48.4974 40.0001 48.5Z" fill="#C3CDDE" fill-opacity="0.35"/>
<path d="M46.59 37.27C46.59 40.13 44.09 42.42 39.93 42.42C35.77 42.42 33.4 40.15 33.4 37.35C33.4 35.21 34.65 33.84 36.71 32.93C35.9245 32.5629 35.2615 31.9771 34.8004 31.2428C34.3393 30.5086 34.0996 29.657 34.11 28.79C34.11 25.93 36.71 24.14 40.01 24.14C43.31 24.14 45.91 25.72 45.91 28.64C45.91 30.2 45.03 31.55 43.05 32.64C45.44 33.71 46.59 35.21 46.59 37.27ZM42.87 37.27C42.87 35.74 42.06 35.04 39.87 34.27L39.04 33.98C38.4231 34.2638 37.9039 34.7239 37.548 35.3022C37.1921 35.8806 37.0154 36.5514 37.04 37.23C37.04 38.79 38.16 39.75 39.95 39.75C41.74 39.75 42.87 38.67 42.87 37.24V37.27ZM37.69 28.87C37.69 30.23 38.53 30.87 40.08 31.5L40.61 31.68C41.1369 31.4226 41.5785 31.0188 41.8818 30.5168C42.1851 30.0149 42.3372 29.4362 42.32 28.85C42.3537 28.5427 42.3156 28.2318 42.2089 27.9417C42.1021 27.6515 41.9296 27.3901 41.7048 27.1779C41.48 26.9657 41.209 26.8085 40.9132 26.7186C40.6174 26.6288 40.3049 26.6087 40 26.66C39.6992 26.6243 39.3942 26.6551 39.1066 26.7502C38.819 26.8452 38.5558 27.0022 38.3355 27.2101C38.1152 27.418 37.9432 27.6717 37.8317 27.9534C37.7202 28.235 37.6718 28.5376 37.69 28.84V28.87ZM60.87 30.62C60.4858 27.2362 59.2845 23.9967 57.3695 21.1805C55.4546 18.3644 52.8835 16.0563 49.8779 14.4551C46.8723 12.8539 43.5224 12.0076 40.1169 11.9893C36.7115 11.971 33.3526 12.7812 30.33 14.35C29.3958 14.8054 28.3415 14.9539 27.3178 14.7743C26.2942 14.5947 25.3534 14.0962 24.63 13.35L18 6.79L30.58 7.15L31 1H8V24L14.11 23.64L13.75 11.06L20.35 17.66C21.9795 19.3164 24.0974 20.4064 26.3923 20.77C28.6872 21.1336 31.0383 20.7516 33.1 19.68C34.9415 18.7325 36.9593 18.1767 39.0262 18.0474C41.0931 17.9181 43.1644 18.2182 45.1096 18.9289C47.0548 19.6395 48.8318 20.7452 50.3287 22.1764C51.8255 23.6076 53.0098 25.3332 53.8069 27.2446C54.604 29.156 54.9967 31.2118 54.9602 33.2824C54.9237 35.3531 54.4589 37.3937 53.5949 39.2758C52.7309 41.158 51.4866 42.8408 49.9402 44.2184C48.3939 45.5959 46.579 46.6384 44.61 47.28C42.3993 47.9962 40.4721 49.3941 39.105 51.2732C37.7379 53.1523 37.001 55.4162 37 57.74V80H43V57.74C43.0029 56.6873 43.3379 55.6624 43.9574 54.8113C44.5769 53.9602 45.4492 53.3263 46.45 53C51.0625 51.4902 55.0144 48.4378 57.6406 44.3564C60.2668 40.2749 61.4073 35.4135 60.87 30.59V30.62Z" fill="white"/>
</svg>

<svg xmlns="http://www.w3.org/2000/svg" viewBox="0 0 80 80"><path d="M65.48,38.19a26,26,0,0,0,.51-5l-5.51-.58A20.08,20.08,0,0,0,59.6,27l5.05-2.25a25.83,25.83,0,0,0-2-4.57l-5.09,2.26A20.59,20.59,0,0,0,54,18l3.28-4.5a24.78,24.78,0,0,0-2-1.57,23.6,23.6,0,0,0-2.1-1.37l-3.26,4.49a20.36,20.36,0,0,0-5.32-2l.58-5.52a26,26,0,0,0-5-.51l-.58,5.51A20.08,20.08,0,0,0,34,13.4L31.76,8.35a25.83,25.83,0,0,0-4.57,2l2.26,5.09A20.48,20.48,0,0,0,46,52.6l2.25,5a25.83,25.83,0,0,0,4.57-2l-2.26-5.09A20.59,20.59,0,0,0,55,47l4.5,3.28a24.78,24.78,0,0,0,1.57-2,23.6,23.6,0,0,0,1.37-2.1l-4.49-3.26a20.36,20.36,0,0,0,2-5.32ZM40,48.5A15.5,15.5,0,1,1,55.5,33,15.51,15.51,0,0,1,40,48.5Z" style="fill:#d1def4;opacity:0.35000000000000003"/><path d="M46.59,37.27c0,2.86-2.5,5.15-6.66,5.15s-6.53-2.27-6.53-5.07c0-2.14,1.25-3.51,3.31-4.42a4.51,4.51,0,0,1-2.6-4.14c0-2.86,2.6-4.65,5.9-4.65s5.9,1.58,5.9,4.5c0,1.56-.88,2.91-2.86,4C45.44,33.71,46.59,35.21,46.59,37.27Zm-3.72,0c0-1.53-.81-2.23-3-3l-.83-.29a3.44,3.44,0,0,0-2,3.25c0,1.56,1.12,2.52,2.91,2.52S42.87,38.67,42.87,37.24Zm-5.18-8.4c0,1.36.84,2,2.39,2.63l.53.18a3.05,3.05,0,0,0,1.71-2.83A2,2,0,0,0,40,26.66,2.07,2.07,0,0,0,37.69,28.84Zm23.18,1.75A21,21,0,0,0,30.33,14.35a4.93,4.93,0,0,1-5.7-1L18,6.79l0,0,12.58.36L31,1H8V24l6.11-.36-.36-12.58,0,0,6.6,6.6A10.86,10.86,0,0,0,33.1,19.68a15,15,0,1,1,11.51,27.6A11,11,0,0,0,37,57.74V80h6V57.74A5,5,0,0,1,46.45,53,21.12,21.12,0,0,0,60.87,30.59Z" style="fill:#fff"/></svg>
